!!!OTL: NACHT UND STILL ISTS UM MICH HER
!!!ARE: Europa, Mitteleuropa, Deutschland
!!!SCT: B0246A
!!!YEM: Copyright 1995, estate of Helmut Schaffrath.
**kern
*ICvox
*Ivox
*M4/4
*k[f#]
*G:
=1
{4g
4g
4b
4b
=2
4a
4a
2g}
=3
{4b
4b
4dd
4dd
=4
4cc
4cc
2b}
=5
{4a
4a
4cc
4cc
=6
8b
8a
8b
8cc
2a}
=7
{4cc
4cc
4b
4a
=8
4g
4f#
2g}
==
!!!AGN: Tageszeiten - Lied, Abend
!!!ONB: ESAC (Essen Associative Code) Database: BOEHME
!!!AMT: simple quadruple
!!!AIN: vox
!!!EED: Helmut Schaffrath
!!!EEV: 1.0
*-
